X:66
T:Lady Charlotte Campbell's Reel
R:Strathspey
C:R. MacIntosh
S:MacDonald - Skye Collection
N:pg.190
M:C
L:1/8
K:B_
F/E/|D<F F>B E<G Gc/B/|A>cf>e dB E<G Gc/B/|(A/B/c) F>e dBB:|
a|b>BA>a g>GF>f|e>c e/d/c/B/ A<c c>a|b>Ba>B g>Bf>B|(A/B/c) (Fe) dBBa|
b>BA>a g>GF>f|e>c e/d/c/B/ Ac cB/A/|G>BF>B E>BD>F|(E/F/G) F>E DB,B,||
